Hatter-kde/actions/16/view-sort-ascending-name.svg

<?xml version="1.0" encoding="UTF-8"?>
<svg viewBox="0 0 16 16" xmlns="http://www.w3.org/2000/svg">
 <defs id="defs3051">
  <style id="current-color-scheme" type="text/css">.ColorScheme-Text {
        color:#363636;
      }</style>
 </defs>
 <path class="ColorScheme-Text" d="m4.0938 2c-0.78324 0.0182-1.3753 0.14339-1.8125 0.34375l0.25 0.90625c0.20947-0.0729 1.0043-0.3125 1.4688-0.3125h0.0625c0.64663 0.0273 0.6875 0.25695 0.6875 0.8125v0.21875l-0.34375 0.0625c-1.5665 0.22768-2.4062 0.42281-2.4062 1.625 0 0.83789 0.61657 1.3438 1.5 1.3438 0.6102 0 0.99642-0.24767 1.4062-0.59375l0.09375 0.59375h1v-3.4688c0-1.0291-0.7196-1.5312-1.8125-1.5312h-0.09375zm6.4062 2-0.21875 0.1875-3.2812 3.3125 0.71875 0.6875 2.2812-2.2812v8.0938h1v-8.0938l2.2812 2.2812 0.71875-0.6875-3.2812-3.3125-0.21875-0.1875zm-5.75 0.6875v1.125c-0.33697 0.2277-0.59409 0.375-1.0312 0.375-0.39162 0-0.59375-0.24767-0.59375-0.59375 0-0.65574 0.57997-0.77482 1.2812-0.875l0.34375-0.03125zm-2.75 4.3125v1h2.375l-2.375 3.3184v0.68164h4v-1h-2l2-3v-1h-4z" fill="currentColor"/>
</svg>

<svg xmlns="http://www.w3.org/2000/svg" viewBox="0 0 16 16">
  <defs id="defs3051">
    <style type="text/css" id="current-color-scheme">
      .ColorScheme-Text {
        color:#363636;
      }
      </style>
  </defs>
 <path style="fill:currentColor;fill-opacity:1;stroke:none" 
       d="M 4.09375 2 C 3.31051 2.0182 2.71841 2.14339 2.28125 2.34375 L 2.53125 3.25 C 2.74072 3.1771 3.53552 2.9375 4 2.9375 L 4.0625 2.9375 C 4.70913 2.9648 4.75 3.19445 4.75 3.75 L 4.75 3.96875 L 4.40625 4.03125 C 2.83976 4.25893 2 4.45406 2 5.65625 C 2 6.49414 2.61657 7 3.5 7 C 4.1102 7 4.49642 6.75233 4.90625 6.40625 L 5 7 L 6 7 L 6 3.53125 C 6 2.50211 5.2804 2 4.1875 2 L 4.09375 2 z M 10.5 4 L 10.28125 4.1875 L 7 7.5 L 7.71875 8.1875 L 10 5.90625 L 10 14 L 11 14 L 11 5.90625 L 13.28125 8.1875 L 14 7.5 L 10.71875 4.1875 L 10.5 4 z M 4.75 4.6875 L 4.75 5.8125 C 4.41303 6.0402 4.15591 6.1875 3.71875 6.1875 C 3.32713 6.1875 3.125 5.93983 3.125 5.59375 C 3.125 4.93801 3.70497 4.81893 4.40625 4.71875 L 4.75 4.6875 z M 2 9 L 2 10 L 4.375 10 L 2 13.318359 L 2 14 L 6 14 L 6 13 L 4 13 L 6 10 L 6 9 L 2 9 z "
     class="ColorScheme-Text"
     />
</svg>
